X: 1
T: La canzone dell'amore
C: C.A.Bixio
O: Italy
Z: John Chambers <jc@trillian.mit.edu>
M: 3/4
L: 1/8
K: Gm
| "Gm"d4- dc/d/ | "Cm"c4- cB/A/ \
| "Gm"G6- | G6 \
| B4- BA/B/ | "G9"A4- AG/F/ \
| "Cm"E6- | E2 "D7"^F2 "Gm"G2 \
| "Cm"A6 | c6 \
| "Gm"BA  G4- | G2 A2 B2 |
| "Cm"c6 | e4- eA/B/ \
| "Gm"d6- | "D7"d6 \
| "Gm"d4- dc/d/ | "D7/G"c4- cB/A/ \
| "Gm"G6- | G2 G2 ^F2 \
| "D7"D6- | D2 c2 =B2 \
| "G"=B6- | B6 | [K:G]
| "G" B4 AG | D4 G2 \
| "D7"G/A/G/F/ A4- | A6 \
| A4 FE | "Daug"D4 F2 \
| "G"(3FGF E4- | E6 |
| "G"G2 F2 A2 | G2 F2 E_E \
| "D7"D6- | D6 \
| A2 ^G2 B2 | A2 "G"G2 zA/^A/ \
| "G"B6- | B6 |
|: "G"B4 AG | D4 G2 \
| "D7"G/A/G/F/ A4- | A6 \
| "Am"A4 FE | "B7"^D4 c2 \
| "Em"dc B4- | B6 |
| "Cm"c2 d2 _e2 | _e3 d c_B/A/ \
| "Gm"G6- | G2 G2 F2 \
| "D7"D6 | A6 | "Gm"_BA G4- | G6 :|
%%sep 1 1 500
